!!!!SEGMENT: pl-kk--kk-i-386--001-003_anonim--missa-prima-gloria.krn
!!!cenid: 18xx:4501
!!!COM: Anonim
!!!COM-rismID: pe30004985
!!!CDT:
!!!CNT:
!!!OPR: [Missa prima]
!!!OTL: Gloria
!!!OMV: 003
!!!PDT:
!!!AGN: Sacred
!!!YEC: Copyright 2022 Narodowy Instytut Fryderyka Chopina (https://polishscores.org)
!!!YEM: License CC-BY-4.0 (https://creativecommons.org/licenses/by/4.0)
!!!SMS-siglum: PL-Kk
!!!SMS-shelfmark: Kk.I.386
!!!SMS-variant:
!!!SMS-altvar:
!!!SMS-shelfwork: 001-003 M
!!!NIFC-rismSourceID: 1001218240
!!!NIFC-rismChildID: 1001218242
!!!NIFC-islandoraID: pl-kk:16060
!!!URL-pdf-islandora: https://repozytorium.nifc.pl/islandora/object/pl-kk%3A16060/datastream/PDF/view
!!!URL-scan: https://polish.musicsources.pl/pl/lokalizacje/galeria/rekopisy/7134/3 @EN{Scan on Polish Music Sources Website} @PL{Skany w portalu Dziedzictwo Muzyki Polskiej w otwartym dostępie}
!!!IIIF:
!!!ONB-nifc: UWAGA: Części Missy Prima: Rorate, Kyrie, Gloria, Graduale, Offertorium, Sanctus, Benedicuts, Agnus, Dona. Zakres skanów: S – 3-6, A – 12-15, T – 22-25, B – 32-25
!!!AIN: 1 alto 1 bass 1 soprn 1 tenor
!!!key:
**kern	**text	**kern	**text	**kern	**text	**kern	**text
*part4	*part4	*part3	*part3	*part2	*part2	*part1	*part1
*staff4	*staff4	*staff3	*staff3	*staff2	*staff2	*staff1	*staff1
*I"Basso.	*	*I"Tenore.	*	*I"Alto.	*	*I"Soprano.	*
*I'B	*	*I'T	*	*I'A	*	*I'S	*
*Ibass	*	*Itenor	*	*Ialto	*	*Isoprn	*
*ICvox	*	*ICvox	*	*ICvox	*	*ICvox	*
*clefF4	*	*clefC4	*	*clefC3	*	*clefC1	*
*k[f#]	*	*k[f#]	*	*k[f#]	*	*k[f#]	*
*G:	*	*G:	*	*G:	*	*G:	*
*M4/4	*	*M4/4	*	*M4/4	*	*M4/4	*
*met(c)	*	*met(c)	*	*met(c)	*	*met(c)	*
=1	=1	=1	=1	=1	=1	=1	=1
4G\	Glo-	4B\	Glo-	4d\	Glo-	4g\	Glo-
4C/	-ri-	4c\	-ri-	4e\	-ri-	4a\	-ri-
4D\	-a	4A\	-a	4d\	-a	4f#\	-a
8GG/	in	8B\	in	8d\	in	8g\	in
8GG/	ex-	8B\	ex-	8d\	ex-	8g\	ex-
=2	=2	=2	=2	=2	=2	=2	=2
4E\	-cel-	4G/	-cel-	4e\	-cel-	4cc\	-cel-
4F#\	-sis	4A/	-sis	4d\	-sis	4cc\	-sis
4G\	De-	4G/	De-	4d\	De-	4cc\	De-
4G\	-o	4G/	-o	4d\	-o,	4b\	-o,
=3	=3	=3	=3	=3	=3	=3	=3
4B\	in	4G/	in	4g\	in	4dd\	in
4c\	ex-	8c\L	ex-	4g\	ex-	4ee\	ex-
.	.	8e\J	.	.	.	.	.
4c\	-cel-	4d\	-cel-	4f#\	-cel-	4a\	-cel-
4B\	-sis	4d\	-sis	4g\	-sis	4b\	-sis
=4	=4	=4	=4	=4	=4	=4	=4
*	*	*2\right	*	*	*	*	*
4F#\	De-	2d\	De-	4a\	De-	4cc\	De-
4G\	.	.	.	4g\	.	4b\	.
4D\	-o	4d\	-o,	4f#\	-o,	4a\	-o,
4r	.	4r	.	4r	.	4r	.
!LO:LB:g=original	!	!LO:LB:g=original	!	!LO:LB:g=original	!	!LO:LB:g=original	!
=5	=5	=5	=5	=5	=5	=5	=5
4D\	Et	4d\	Et	4f#\	Et	4a\	Et
8F#\L	in	8d\L	in	4f#\	in	8a\L	in
8D\J	.	8A\J	.	.	.	8dd\J	.
8E\	ter-	8A\	ter-	8g\	ter-	8cc#X\	ter-
8E\	-ra	8A\	-ra	8g\	-ra	8cc#\	-ra
8G\	pax	8A\	pax	8g\	pax	8cc#\	pax
8E\	ho-	8c#X\	ho-	8g\	ho-	8ee\	ho-
=6	=6	=6	=6	=6	=6	=6	=6
4F#\	-mi-	4A\	-mi-	8a\	-mi-	4ee\	-mi-
.	.	.	.	8a\	-ni-	.	.
8F#\	-ni-	8d\	-ni-	4a\	-bus	8dd\	-ni-
8F#\	-bus	8d\	-bus	.	.	8dd\	-bus
4C#X/	bo-	4A\	bo-	4a\	bo-	4ee\	bo-
4C#/	-ne	4A\	-ne	4e\	-ne	4g\	-ne
=7	=7	=7	=7	=7	=7	=7	=7
4D/	vo-	4A\	vo-	4d\	vo-	4f#/	vo-
4GG/	-lun-	8G\L	-lun-	8d\L	-lun-	8b\L	-lun-
.	.	8B\J	.	8e\J	.	8g\J	.
2AA/	-ta-	2A\	-ta-	4d\	-ta-	4f#/	-ta-
.	.	.	.	4c#X\	.	4e/	.
=8	=8	=8	=8	=8	=8	=8	=8
4D\	-tis	4A\	-tis,	4d\	-tis	4d/	-tis
4r	.	4r	.	4r	.	4r	.
4D\	Lau-	4d\	Lau-	4f#\	Lau-	4a\	Lau-
8D\	-da-	8d\	-da-	8f#\	-da-	8a\	-da-
8D\	-mus	8d\	-mus	8g\	-mus	8a\	-mus
!LO:LB:g=original	!	!LO:LB:g=original	!	!LO:LB:g=original	!	!LO:LB:g=original	!
=9	=9	=9	=9	=9	=9	=9	=9
4C#X/	te	4e\	te	4a\	te	4a\	te
8C#/	be-	8e\	be-	8a\	be-	8a\	be-
8C#/	-ne-	8e\	-ne-	8a\	-ne-	8a\	-ne-
4D\	-di-	4d\	-di-	4f#\	-di-	4a\	-di-
8D\	-ci-	8d\	-ci-	8f#\	-ci-	8a\	-ci-
8D\	-mus	8d\	-mus	8f#\	-mus	8b\	-mus
=10	=10	=10	=10	=10	=10	=10	=10
8F#\	te,	8d\	te	8a\	te,	8ccn\	te
16F#\	a-	16d\	a-	16a\	a-	16cc\	a-
16F#\	-do-	16d\	-do-	16a\	-do-	16cc\	-do-
8F#\	-ra-	8d\	-ra-	8a\	-ra-	8cc\	-ra-
8D\	-mus	8d\	-mus	8a\	-mus	8cc\	-mus
4G\	te,	4d\	te,	8a\L	te,	8cc\L	te,
.	.	.	.	8g\J	.	8b\J	.
4r	.	4r	.	4r	.	4r	.
=11	=11	=11	=11	=11	=11	=11	=11
4G\	glo-	4B\	glo-	4g\	glo-	4dd\	glo-
8G\	-ri-	8B\	-ri-	8g\	-ri-	8dd\	-ri-
8G\	-fi-	8B\	-fi-	8g\	-fi-	8dd\	-fi-
8.G\	-ca-	8.c\	-ca-	8.g\	-ca-	8.dd\	-ca-
16G\	-mus	16c\	-mus	16g\	-mus	16dd\	-mus
4G\	te	4c\	te	4g\	te	4ee\	te
!LO:LB:g=original	!	!	!	!LO:LB:g=original	!	!LO:LB:g=original	!
=12	=12	=12	=12	=12	=12	=12	=12
*	*	*	*	*2\right	*	*2\right	*
4.B\	glo-	2d\	glo-	2.g\	glo-	2ffn\	glo-
8G\	.	.	.	.	.	.	.
4c\	-ri-	4c\	-ri-	.	.	4ee\	.
8B\L	-fi-	8d\L	-fi-	8g\	-ri-	8dd\	-ri-
8c\J	.	8e\J	.	8a\	-fi-	8cc\	-fi-
!	!	!LO:LB:g=original	!	!	!	!	!
=13	=13	=13	=13	=13	=13	=13	=13
4d\	-ca-	4d\	-ca-	4g\	-ca-	4b\	-ca-
4D\	-mus	4d\	-mus	4f#\	-mus	4a\	-mus
4G\	te,	4B\	te,	4g\	te,	4g\	te,
4r	.	4r	.	4r	.	4r	.
=14	=14	=14	=14	=14	=14	=14	=14
4E\	Gra-	4B\	Gra-	4g\	Gra-	4ee\	Gra-
8E\	-ti-	8B\	-ti-	8g\	-ti-	8ee\	-ti-
8E\	-as	8e\	-as	8g\	-as	8ee\	-as
8.E\	gra-	8.e\	gra-	4a\	gra-	4cc\	gra-
16E\	-ti-	16e\	-ti-	.	.	.	.
4E\	-as	4e\	-as	8a\	-ti-	8cc\	-ti-
.	.	.	.	8a\	-as	8cc\	-as
=15	=15	=15	=15	=15	=15	=15	=15
*2\right	*	*	*	*	*	*	*
2D#X\	a-	4f#\	a-	4a\	a-	4cc\	a-
.	.	4B\	.	4f#X\	.	8b\L	.
.	.	.	.	.	.	8a\J	.
4E\	-gi-	4B\	-gi-	4.e\	-gi-	4.g\	-gi-
4AA#X/	-mus	4c#X\	-mus	.	.	.	.
.	.	.	.	8e\	-mus	8g\	-mus
=16	=16	=16	=16	=16	=16	=16	=16
8BB/	ti-	8B\	ti-	8e\	ti-	8g/	ti-
8BB/	-bi	8B\	-bi	8d#X\	-bi	8f#X/	-bi
4r	.	4r	.	4r	.	4r	.
!LO:LB:g=original	!	!	!	!LO:LB:g=original	!	!LO:LB:g=original	!
8B\	pro-	8B\	pro-	8f#X\	pro-	8dd#X\	pro-
8B\	-pter	8B\	-pter	8f#\	-pter	8dd#\	-pter
8B\	ma-	8B\	ma-	8.f#\	ma-	8dd#\	ma-
8A\	-gnam	8B\	-gnam	.	.	8dd#\	-gnam
.	.	.	.	16f#\	-gnam	.	.
!	!	!LO:LB:g=original	!	!	!	!	!
=17	=17	=17	=17	=17	=17	=17	=17
4.G\	pro-	4.B\	pro-	4.e\	pro-	4.ee\	pro-
8E\	-pter	8B\	-pter	8g\	-pter	8ee\	-pter
4D#X\	ma-	4B\	ma-	4a\	ma-	4ff#X\	ma-
8D#/L	-gnam	8B\L	-gnam	8a\L	-gnam	8ff#\L	-gnam
8BB/J	.	8d#X\J	.	8f#\J	.	8a\J	.
=18	=18	=18	=18	=18	=18	=18	=18
8.E\	glo-	8.e\	glo-	8.e\	glo-	8.g\	glo-
16E\	-ri-	16e\	-ri-	16e\	-ri-	16g\	-ri-
4A\	-am	4e\	-am	4e\	-am	4cc\	-am
4G\	pro-	4e\	pro-	4e\	pto-	4b\	pro-
8G\L	-pter	4e\	-pter	8e\L	-pter	8b\L	-pter
8E\J	.	.	.	8g\J	.	8ee\J	.
=19	=19	=19	=19	=19	=19	=19	=19
4A\	ma-	4e\	ma-	4a\	ma-	4cc\	ma-
4A\	-gnam	8e\L	-gnam	8g\L	-gnam	8b\L	-gnam
.	.	8c\J	.	8f#\J	.	8a\J	.
4B\	glo-	4B\	glo-	4e\	glo-	4g/	glo-
8BB/	-ri-	8B\	-ri-	8d#X\	-ri-	8f#X/	-ri-
8BB/	-am	8B\	-am	8d#\	-am	8f#/	-am
!LO:LB:g=original	!	!	!	!LO:LB:g=original	!	!	!
=20	=20	=20	=20	=20	=20	=20	=20
8E\	tu-	8B\	tu-	8e\	tu-	8e/	tu-
8E\	-am	8B\	-am	8e\	-am	8e/	-am
4r	.	4r	.	4r	.	4r	.
!	!	!	!	!	!	!LO:LB:g=original	!
4c\	Do-	4c\	Do-	4cc\	Do-	4cc\	Do-
8c\	-mi-	8c\	-mi-	8cc\	-mi-	8cc\	-mi-
8c\	-ne	8c\	-ne	8cc\	-ne	8cc\	-ne
!	!	!LO:LB:g=original	!	!	!	!	!
=21	=21	=21	=21	=21	=21	=21	=21
8.c\L	De-	8.c\L	De-	8.cc\L	De-	8.cc\L	De-
16G\Jk	.	16G\Jk	.	16g\Jk	.	16g\Jk	.
4G\	-us	4G\	-us	4g\	-us,	4g\	-us
8B\L	Rex	8d\L	Rex	4g\	Rex	4dd\	Rex
8G\J	.	8B\J	.	.	.	.	.
8B\L	ce-	8d\L	.	4g\	ce-	8dd\L	ce-
8c\J	.	8c\J	.	.	.	8ee\J	.
=22	=22	=22	=22	=22	=22	=22	=22
8A\L	-les-	8c\L	ce-	4.a\	-le-	2.ffn\	-les-
8G\J	.	8B\J	.	.	.	.	.
8A\	-tis	8c\L	.	.	.	.	.
8B\	ce-	8d\J	.	8g\	.	.	.
4c\	-les-	4c\	-le-	4g\	-stis	.	.
4C/	-tis	4c\	-stis	4r	.	4ee\	-tis
=23	=23	=23	=23	=23	=23	=23	=23
8r	.	8r	.	8r	.	8r	.
4c\	De-	4c\	De-	4g\	De-	4ee\	De-
8c\	-us	8c\	-us	8g\	-us	8ee\	-us
!LO:LB:g=original	!	!	!	!	!	!	!
4B-X\	Pa-	4c\	Pa-	4g\	Pa-	4ee\	Pa-
8B-\	-ter	8c\	-ter	8g\	-ter	8ee\	-ter
8G\	Pa-	8c\	Pa-	8g\	Pa-	8ee\	Pa-
!	!	!	!	!LO:LB:g=original	!	!	!
=24	=24	=24	=24	=24	=24	=24	=24
4.A\	-ter	4c\	-ter	4fn\	-ter	4ffn\	-ter
.	.	8c\L	om-	8f\L	om-	8cc\L	om-
8Fn\	o-	8fn\J	.	8a\J	.	8ff\J	.
4G\	-mni-	4d\	-ni-	4bn\	-ni-	4ff\	-ni-
4G\	-po-	4d\	-po-	4b\	-po-	4ff\	-po-
!	!	!LO:PB:g=original	!	!	!	!LO:PB:g=original	!
=25	=25	=25	=25	=25	=25	=25	=25
4c\	-tens	8c\	-tens	8.g\	-tens	8ee\	-tens
.	.	8c\	Do-	.	.	8ee\	Do-
.	.	.	.	16g\	Do-	.	.
8Fn\	Do-	8A\	-mi-	8a\	-mi-	8dd\	-mi-
16E\	-mi-	8fn\	-ne	8a\	-ne	8dd\	-ne
16F\	-ne	.	.	.	.	.	.
4G\	fi-	4e\	fi-	2g\	fi-	4cc\	fi-
4GG/	.	4d\	.	.	.	4b\	.
=26	=26	=26	=26	=26	=26	=26	=26
4C/	-li,	4c\	-li	4g\	-li	4cc\	-li
4r	.	4r	.	4r	.	4r	.
4.c\	fi-	4.c\	fi-	4g\	fi-	4ee\	fi-
.	.	.	.	8g\L	-li	4ee\	-li
8A\	-li	8c\	-li	8a\J	.	.	.
=27	=27	=27	=27	=27	=27	=27	=27
4.G#X\	u-	4.B\	u-	4.b\	u-	4.ee\	u-
8E\	-ni-	8B\	-ni-	8g#X\	-ni-	8dd\	-ni-
!LO:PB:g=original	!	!	!	!	!	!	!
4A\	-ge-	4A/	-ge-	4e\	-ge-	4cc\	-ge-
8E\	-ni-	8G#X/	-ni-	8e\	-ni-	8b\	-ni-
8E\	-te,	8G#/	-te	8e\	-te	8b\	-te
!	!	!	!	!LO:PB:g=original	!	!	!
=28	=28	=28	=28	=28	=28	=28	=28
8A\L	Je-	4A/	Je-	4e\	Je-	4cc\	Je-
16A\L	.	.	.	.	.	.	.
16Gn\JJ	.	.	.	.	.	.	.
8Fn\L	.	4A/	-su	4a\	-su	4dd\	-su
16E\L	.	.	.	.	.	.	.
16D\JJ	.	.	.	.	.	.	.
(>8C/L	.	8A\L	Je-	4.a\	Je-	4ee\	Je-
16BB/L	.	8c\J	.	.	.	.	.
16AA/JJ)	.	.	.	.	.	.	.
.	.	.	.	.	.	8qgg/	.
8D\L	.	8d\L	-su	.	.	8ffn\L	-su
16C\L	.	8fn\J	.	16a\LL	-su	16ee\L	.
16D\JJ	-su	.	.	16b\JJ	.	16dd\JJ	.
!	!	!	!	!	!	!LO:LB:g=original	!
=29	=29	=29	=29	=29	=29	=29	=29
2E\	Chri-	2e\	Chri-	4a\	Chri-	4cc\	Chri-
.	.	.	.	4g#X\	.	4b\	.
4AA/	-ste,	4e\	-ste	4a\	-ste	4a\	-ste
4r	.	4r	.	4r	.	4r	.
!	!	!LO:LB:g=original	!	!	!	!	!
=30||	=30||	=30||	=30||	=30||	=30||	=30||	=30||
2.A\	Quo-	2.e\	Quo-	2.a\	Quo-	2.cc\	Quo-
4A\	-ni-	4e\	-ni-	4a\	-ni-	4cc\	-ni-
=31	=31	=31	=31	=31	=31	=31	=31
4.G\	-am	4.e\	-am	4.b-X\	-am	4.cc#X\	-am
8G\	tu	8e\	tu	8g\	tu	8cc#\	tu
!LO:LB:g=original	!	!	!	!	!	!	!
4.Fn\	so-	4d\	so-	4a\	so-	4dd\	so-
.	.	8d\L	-lus,	4a\	-lus	4dd\	-lus
8D\	-lus	8A\J	.	.	.	.	.
=32	=32	=32	=32	=32	=32	=32	=32
4C#X/	tu	4A\	tu	4a\	tu	4ee\	tu
8C#/	so-	8A\	so-	8a\	so-	8ee\	so-
8AA/	-lus	8c#X\	-lus	8a\	-lus	8ee\	-lus
8D\	san-	8d\	san-	8a\	san-	8ffn\	san-
8D\	-ctus	8d\	-ctus	8a\	-ctus	8ff\	-ctus
4r	.	4r	.	4r	.	4r	.
!	!	!	!	!LO:LB:g=original	!	!	!
=33	=33	=33	=33	=33	=33	=33	=33
4D\	tu	4d\	tu	4a\	tu	4ffn\	tu
8D\	so-	8d\	so-	8a\	so-	8ff\	so-
8D\	-lus	8A\	-lus	8a\	-lus	8ff\	-lus
8.G\	Do-	8.G/	Do-	8.b-X\	Do-	8.ee\	Do-
16G\	-mi-	16G/	-mi-	16b-\	-mi-	16ee\	-mi-
!	!	!	!	!	!	!LO:LB:g=original	!
8G\	-nus	8e\	-nus	8b-\	-nus	8ee\	-nus
8G\	tu	8e\	tu	8b-\	tu	8dd\	tu
!	!	!LO:LB:g=original	!	!	!	!	!
=34	=34	=34	=34	=34	=34	=34	=34
8A\L	so-	4e\	so-	4a\	so-	4cc#X\	so-
8G\J	.	.	.	.	.	.	.
8Fn\	-lus	8d\	-lus	8a\	-lus	8dd\	-lus
8D\	al-	8fn\	al-	8a\	al-	8dd\	al-
4A\	-tis-	4e\	-ti-	4a\	-tis-	4dd\	-tis-
8A\	-si-	8e\	-si-	8a\	-si-	8cc#\	-si-
8A\	-mus	8e\	-mus	8g\	-mus	8cc#\	-mus
!LO:LB:g=original	!	!	!	!	!	!	!
=35	=35	=35	=35	=35	=35	=35	=35
4D\	Je-	4d\	Je-	4fn\	Je-	4dd\	Je-
8D\	-su	8d\	-su	8f\L	-su	4dd\	-su
8Fn\	.	8d\	Je-	8a\J	.	.	.
4G\	Je-	8.d\	-su	4.g\	Je-	8b\L	Je-
.	.	.	.	.	.	8cc\J	.
.	.	16e\	.	.	.	.	.
4G\	-su	8fn\	Je-	.	.	8dd\L	-si
.	.	8f\	-su	8g\	-su	8dd\J	.
=36	=36	=36	=36	=36	=36	=36	=36
!	!	!	!	!`	!	!	!
8c\	Chri-	8fn\	Chri-	8g\	Chri-	8dd\	Chri-
8C/	-ste	8e\	-ste	8g\	-ste,	8cc\	-ste,
!	!	!	!	!LO:LB:g=original	!	!	!
8r	.	8r	.	8r	.	8r	.
8c\	Je-	8e\	Je-	8g\	Je-	8ee\	Je-
8.c\	.	4f#X\	.	4a\	.	4.dd\	.
16B\	.	.	.	.	.	.	.
4B\	-su	4g\	-su	4g\	-su	.	.
.	.	.	.	.	.	8dd\	-su
=37	=37	=37	=37	=37	=37	=37	=37
8A\	Je-	4d\	Je-	4a\	Je-	4ff#X\	Je-
8A\	.	.	.	.	.	.	.
8G\L	-su	4d\	-su	8bn\L	-su	8gg\L	-su
!	!	!LO:LB:g=original	!	!	!	!	!
8B\J	.	.	.	8g\J	.	8b\J	.
8d\	Chri-	8d\	Chri-	8g\	Chri-	8b\	Chri-
!	!	!	!	!	!	!LO:LB:g=original	!
8D\	-ste,	8d\	-ste	8f#X\	-ste,	8a\	-ste
4r	.	4r	.	4r	.	4r	.
!LO:LB:g=original	!	!	!	!	!	!	!
=38	=38	=38	=38	=38	=38	=38	=38
!	!	!	!	!	!	!LO:TX:t=P:problem:niewyraźny zapis w źródle	!
4G\	Cum	4B\	Cum	4d\	Cum	4g\	Cum
8.C/	san-	8c\	san-	8e\	san-	8a\	san-
.	.	8c\	-cto	8e\	-cto	8a\	-cto
16C/	-cto	.	.	.	.	.	.
8D/	ſpi-	8A\	ſpi-	8d\	ſpi-	8f#/	ſpi-
8D/	-ri-	8A\	-ri-	8d\	-ri-	8f#/	-ri-
8BB/	-tu	8B\	-tu	8g\	-tu	8g/	-tu
8G\	in	8B\	in	8g\	.	8g/	in
=39	=39	=39	=39	=39	=39	=39	=39
8G\	glo-	8e\	glo-	8a\	glo-	8cc\	glo-
16G\	-ri-	16e\	-ri-	16a\	.	16cc\	-ri-
16G\	-a	16e\	-a	16a\	-a	16cc\	-a
8F#\	De-	8d\	De-	8a\	De-	8cc\	De-
8F#\	-i	8d\	-i	8a\	-i	8cc\	-i
!	!	!	!	!LO:LB:g=original	!	!	!
4G\	Pa-	8d\	Pa-	8g\	Pa-	8b\	Pa-
.	.	8d\	-tris	8g\	-tris	8b\	-tris
4E\	-tris	4G/	a-	4g\	a-	4cc#X\	a-
=40	=40	=40	=40	=40	=40	=40	=40
8D\	a-	4A\	-men	4f#\	-men,	4dd\	-men
8D\	-men	.	.	.	.	.	.
4BB/	cum	4G\	Cum	4g\	Cum	4dd\	cum
!	!	!LO:LB:g=original	!	!	!	!LO:LB:g=original	!
8C/	san-	8G/	an-	8g\	ſan-	8ee\	san-
8C/	-cto	8c\	-cto	8g\	-cto	8ee\	-cto
8C/	ſpi-	8.A\	ſpi-	8a\	ſpi-	8ee\	spi-
8C/	-ri-	.	.	8a\	-ri-	8ee\	-ri-
.	.	16A\	-ri-	.	.	.	.
!LO:LB:g=original	!	!	!	!	!	!	!
=41	=41	=41	=41	=41	=41	=41	=41
8D\	-tu	4G/	-tu	8a\	-tu	8ff#X\	-tu
8D\	in	.	.	8a\	in	8ff#\	in
8D\	glo-	4c\	in	8b\	glo-	8ff#\	glo-
16D\	-ri-	.	.	16b\	-ri-	16ff#\	-ri-
16D\	-a	.	.	16b\	-a	16ff#\	-a
4E\	De-	4B\	glo-	4b\	De-	4.gg\	De-
4E\	-i	4e\	-ri-	4cc\	-i	.	.
.	.	.	.	.	.	8gg\	-i
=42	=42	=42	=42	=42	=42	=42	=42
4F#\	Pa-	4d\	-a	8cc\L	Pa-	8aa\L	Pa-
.	.	.	.	8a\J	.	8cc\J	.
4F#\	-tris	8d\	De-	4a\	-tris	4cc\	-tris
.	.	8d\	-i	.	.	.	.
4G\	a-	8d\	Pa-	4g\	a-	4b\	a-
.	.	8d\	-tris	.	.	.	.
4G\	-men	4c\	a-	4g\	-men	4ee\	-men
!	!	!	!	!LO:LB:g=original	!	!	!
=43	=43	=43	=43	=43	=43	=43	=43
4G\	a-	4B\	-men	4g\	a-	4dd\	a-
4E\	-men	4c#X\	a-	8g\L	-men	4gg\	-men
.	.	.	.	8a\J	.	.	.
8D/L	a-	4d\	-men	4a\	a-	4ff#\	a-
8C/	.	.	.	.	.	.	.
8BB/	.	8d\L	a-	8g\L	-men	8gg\L	-men
8C/J	.	8e\J	.	8a\J	.	8cc\J	.
!	!	!LO:LB:g=original	!	!	!	!LO:LB:g=original	!
=44	=44	=44	=44	=44	=44	=44	=44
2D\	.	4d\	-men	4g\	a-	4b\	a-
.	.	4d\	a-	4f#\	.	4a\	.
4G\	-men	4d\	-men	4g\	.	4g\	.
4D\	a-	4d\	a-	4f#\	.	4a\	.
=45	=45	=45	=45	=45	=45	=45	=45
4GG/	-men	4B\	-men	4g\	-men	4b\	-men
4r	.	4r	.	4r	.	4r	.
4D/	a-	4d\	a-	4g\	a-	4dd\	a-
4r	.	4r	.	4r	.	4r	.
=46	=46	=46	=46	=46	=46	=46	=46
4GG/	-men.	4d\	-men.	4g\	-men.	4g/	-men.
4r	.	4r	.	4r	.	4r	.
2r	.	2r	.	2r	.	2r	.
==	==	==	==	==	==	==	==
*-	*-	*-	*-	*-	*-	*-	*-
!!!system-decoration: [(s1,s2,s3,s4)]
!!!ENC: Anastazja Marusiak
!!!END: 2023-10-30
!!!ENC: Leszek Kubiak
!!!END: 2024-06-23
!!!RDF**kern: > = above
!!!RDF**kern: < = below
